X:1
T:La Soupe aux Choux
C:Raymond Lefèvre, fichier abc : Bernard Loffet
L:1/8
Q:430
K:C
M:2/2
 [eA,,]d[cA,]B [A2A,,2][G2E,2] | [AA,,]B[c2A,2] [cA,,]d[e2A,2] | [eA,,]d[cA,]B [A2A,,2][AA,]c | \
 [BE,,]A[BE,]G [E2E,,2]E,2 | [eA,,]d[cA,]B [A2A,,2][G2E,2] | [AA,,]B[c2A,2] [cA,,]d[e2A,2] | \
 [eA,,]d[cA,]B [A2A,,2][AA,]c | [BE,,]A[BE,]G [E2E,,2]E,2 | [F2F,,2][FF,]G [AF,,]B[c2F,2] | \
 [cC,,]d[e2C,2] [eC,,]f[g2C,2] | [F2F,,2][FF,]G [AF,,]B[c2F,2] | C,,2[G2C,2] [G2C,,2]C,2 | \
 [F2F,,2][FF,]G [AF,,]B[c2F,2] | [cC,,]d[e2C,2] [eC,,]f[g2C,2] | [fD,,]e[dD,]c [BD,,]c[dD,]B | \
 [e2E,,2]E,2 E,,2E,2 | \
W:Created with TablEdit http://www.tabledit.com/ by Bernard Loffet
